apps/explorer/src/assets/img/wallets/argent.svg

<svg fill="none" height="36" viewBox="0 0 40 36" width="40" xmlns="http://www.w3.org/2000/svg"><path d="m24.7582-.0000004h-10.1344c-.3387 0-.61.2811784-.6174.6306834-.2047 9.824217-5.18406 19.148517-13.754507 25.753017-.2720976.2096-.3340876.6035-.135159.8872l5.929496 8.4631c.20173.288.59476.353.87143.1414 5.35884-4.1026 9.66924-9.0518 12.77334-14.5374 3.1041 5.4856 7.4147 10.4348 12.7736 14.5374.2764.2116.6695.1466.8715-.1414l5.9295-8.4631c.1986-.2837.1366-.6776-.1352-.8872-8.5707-6.6045-13.55-15.9288-13.7545-25.753017-.0074-.349505-.279-.6306834-.6177-.6306834z" fill="#ff875b"/></svg>

<svg width="40" height="36" viewBox="0 0 40 36" fill="none" xmlns="http://www.w3.org/2000/svg">
<path d="M24.7582 -3.97364e-07H14.6238C14.2851 -3.97364e-07 14.0138 0.281178 14.0064 0.630683C13.8017 10.4549 8.82234 19.7792 0.251893 26.3837C-0.0202046 26.5933 -0.0821946 26.9872 0.116734 27.2709L6.04623 35.734C6.24796 36.022 6.64099 36.087 6.91766 35.8754C12.2765 31.7728 16.5869 26.8236 19.691 21.338C22.7951 26.8236 27.1057 31.7728 32.4646 35.8754C32.741 36.087 33.1341 36.022 33.3361 35.734L39.2656 27.2709C39.4642 26.9872 39.4022 26.5933 39.1304 26.3837C30.5597 19.7792 25.5804 10.4549 25.3759 0.630683C25.3685 0.281178 25.0969 -3.97364e-07 24.7582 -3.97364e-07Z" fill="#FF875B"/>
</svg>
